Catalina-light/actions/16/align-horizontal-node.svg

<svg xmlns="http://www.w3.org/2000/svg" width="24" height="24" viewBox="0 0 24 24">
 <defs>
  <style id="current-color-scheme" type="text/css">
   .ColorScheme-Text { color:#5c616c; } .ColorScheme-Highlight { color:#5294e2; }
  </style>
 </defs>
 <path style="fill:currentColor" class="ColorScheme-Text" d="M 0.4921875 -0.001953125 L 0.4921875 0 A 0.49975 0.49977 0 0 0 0.12890625 0.83007812 C 1.0354762 1.8880781 2.6789219 2.3993 4.6074219 2.8125 C 5.9737219 3.1051 7.4878937 3.3303937 8.9960938 3.5585938 L 8.9960938 6.0039062 L 11.001953 6.0039062 L 11.001953 9.0039062 L 8.9960938 9.0039062 L 8.9960938 10.443359 C 8.9920938 10.444059 8.988374 10.443359 8.984375 10.443359 C 6.874975 10.789759 4.756325 11.242153 3.078125 12.126953 C 1.399825 13.011753 0.14666563 14.410091 0.009765625 16.462891 C -0.044224375 17.277991 0.25760875 18.003862 0.79296875 18.539062 C 1.3283387 19.074363 2.0677125 19.445128 2.9453125 19.736328 C 4.5643125 20.273528 6.6919937 20.535494 8.9960938 20.746094 L 8.9960938 22.998047 L 11.001953 22.998047 L 11.001953 23.994141 L 11.501953 23.994141 L 12.001953 23.994141 L 12.001953 23.494141 L 12.001953 22.998047 L 13.994141 22.998047 L 13.994141 21.191406 C 17.698241 21.554006 21.238544 22.092256 23.214844 23.410156 A 0.49998 0.49999 0 1 0 23.769531 22.578125 C 21.442731 21.026525 17.753141 20.501462 13.994141 20.164062 L 13.994141 18 L 12.001953 18 L 12.001953 14 L 13.994141 14 L 13.994141 10.660156 C 14.348541 10.592156 14.702167 10.524312 15.029297 10.445312 C 15.878487 10.240012 16.627622 9.9920656 17.232422 9.6347656 C 17.837272 9.2775656 18.317622 8.7799937 18.482422 8.1210938 C 18.691572 7.2837938 18.590619 6.5078531 18.224609 5.8769531 C 17.858499 5.2459531 17.261346 4.771225 16.541016 4.390625 C 15.812976 4.006025 14.945241 3.7079906 13.994141 3.4628906 L 13.994141 1.0039062 L 12.001953 1.0039062 L 12.001953 0.50390625 L 12.001953 0.00390625 L 11.001953 0.00390625 L 11.001953 0.50390625 L 11.001953 1.0039062 L 8.9960938 1.0039062 L 8.9960938 2.5449219 C 7.5367938 2.3233219 6.0899062 2.1048312 4.8164062 1.8320312 C 2.9547063 1.4332313 1.4809719 0.86903437 0.88867188 0.17773438 A 0.49975 0.49977 0 0 0 0.4921875 -0.001953125 z M 13.994141 4.5136719 C 14.792971 4.7326719 15.511619 4.9801438 16.074219 5.2773438 C 16.690069 5.6027437 17.122775 5.9730594 17.359375 6.3808594 C 17.596015 6.7886594 17.670979 7.2434594 17.511719 7.8808594 C 17.426739 8.2214594 17.187299 8.5040437 16.724609 8.7773438 C 16.261829 9.0506438 15.592922 9.2836625 14.794922 9.4765625 C 14.546262 9.5365625 14.265621 9.5887781 13.994141 9.6425781 L 13.994141 9.0039062 L 12.001953 9.0039062 L 12.001953 6.0039062 L 13.994141 6.0039062 L 13.994141 4.5136719 z M 8.9960938 11.458984 L 8.9960938 14.001953 L 11.001953 14.001953 L 11.001953 18.001953 L 8.9960938 18.001953 L 8.9960938 19.742188 C 6.7477937 19.533087 4.7002656 19.269016 3.2597656 18.791016 C 2.4682656 18.528316 1.8651469 18.200984 1.4980469 17.833984 C 1.1309369 17.466984 0.9707125 17.08755 1.0078125 16.53125 C 1.1207825 14.83575 2.0535219 13.798019 3.5449219 13.011719 C 4.9999219 12.244519 6.9736937 11.796984 8.9960938 11.458984 z"/>
</svg>

<svg width="24" height="24" viewBox="0 0 24 24" xmlns="http://www.w3.org/2000/svg">
<defs>
<style id="current-color-scheme" type="text/css">.ColorScheme-Text { color:#5c616c; } .ColorScheme-Highlight { color:#5294e2; }</style>
</defs>
<path class="ColorScheme-Text" d="m0.49219-0.0019531v0.0019531a0.49975 0.49977 0 0 0-0.36328 0.83008c0.90657 1.058 2.55 1.5692 4.4785 1.9824 1.3663 0.2926 2.8805 0.51789 4.3887 0.74609v2.4453h2.0059v3h-2.0059v1.4395c-4e-3 7e-4 -0.0077198 0-0.011719 0-2.1094 0.3464-4.228 0.79879-5.9062 1.6836-1.6783 0.8848-2.9315 2.2831-3.0684 4.3359-0.05399 0.8151 0.24784 1.541 0.7832 2.0762 0.53537 0.5353 1.2747 0.90607 2.1523 1.1973 1.619 0.5372 3.7467 0.79917 6.0508 1.0098v2.252h2.0059v0.99609h0.5 0.5v-0.5-0.49609h1.9922v-1.8066c3.7041 0.3626 7.2444 0.90085 9.2207 2.2188a0.49998 0.49999 0 1 0 0.55469-0.83203c-2.3268-1.5516-6.0164-2.0767-9.7754-2.4141v-2.1641h-1.9922v-4h1.9922v-3.3398c0.3544-0.068 0.70803-0.13584 1.0352-0.21484 0.84919-0.2053 1.5983-0.45325 2.2031-0.81055 0.60485-0.3572 1.0852-0.85477 1.25-1.5137 0.20915-0.8373 0.1082-1.6132-0.25781-2.2441-0.36611-0.631-0.96326-1.1057-1.6836-1.4863-0.72804-0.3846-1.5958-0.68263-2.5469-0.92773v-2.459h-1.9922v-0.5-0.5h-1v0.5 0.5h-2.0059v1.541c-1.4593-0.2216-2.9062-0.44009-4.1797-0.71289-1.8617-0.3988-3.3354-0.963-3.9277-1.6543a0.49975 0.49977 0 0 0-0.39648-0.17969zm13.502 4.5156c0.79883 0.219 1.5175 0.46647 2.0801 0.76367 0.61585 0.3254 1.0486 0.69572 1.2852 1.1035 0.23664 0.4078 0.3116 0.8626 0.15234 1.5-0.08498 0.3406-0.32442 0.62318-0.78711 0.89648-0.46278 0.2733-1.1317 0.50632-1.9297 0.69922-0.24866 0.06-0.5293 0.11222-0.80078 0.16602v-0.63867h-1.9922v-3h1.9922v-1.4902zm-4.998 6.9453v2.543h2.0059v4h-2.0059v1.7402c-2.2483-0.2091-4.2958-0.47317-5.7363-0.95117-0.7915-0.2627-1.3946-0.59003-1.7617-0.95703-0.36711-0.367-0.52733-0.74643-0.49023-1.3027 0.11297-1.6955 1.0457-2.7332 2.5371-3.5195 1.455-0.7672 3.4288-1.2147 5.4512-1.5527z" fill="currentColor"/>
</svg>
